X:1
T:Golden Key, 10.7.10.7
T:John Robson Sweney (1837-1899)
T:Golden Key, 10.7.10.7
T:Public Domain
C:John Robson Sweney (1837-1899)
Z:Public Domain
%%score ( 1 2 ) 3
L:1/8
M:3/4
K:E
V:1 treble 
V:2 treble 
V:3 bass 
V:1
 E>[EF] | [EG]4 [EG]2 | [EB]4 [Ec]>[EB] | [EB]4 [EG]2 | [DF]4 [DF]>[EG] | [FA]4 [DB]>[DF] | %6
 [EG]4 [DF]2 | E4 [EG]>[FA] | [GB]4 [EG]2 | [GB]4 [GB]>[Ge] | [Ae]4 [Ac]2 | [GB]4 [GB]>[FA] | %12
 [EG]4 [DF]>[DA] | [EG]4 [DF]2 | E4 |] %15
V:2
 E3/2 x/ | x6 | x6 | x6 | x6 | x6 | x6 | E4 x2 | x6 | x6 | x6 | x6 | x6 | x6 | E4 |] %15
V:3
 [E,G,]>[E,A,] | [E,B,]4 [E,B,]2 | [E,G,]4 [E,A,]>[E,G,] | [E,G,]4 [E,B,]2 | %4
 [B,,B,]4 [B,,B,]>[B,,B,] | [B,,B,]4 [B,,F,]>[B,,B,] | [B,,B,]4 [B,,A,]2 | [E,G,]4 [E,B,]>[E,B,] | %8
 [E,E]4 [E,B,]2 | [E,E]4 [E,E]>[E,B,] | [A,C]4 [A,E]2 | [E,E]4 [E,E]>[E,E] | %12
 [E,B,]4 [B,,B,]>[B,,B,] | [B,,B,]4 [B,,A,]2 | [E,G,]4 |] %15

